src/assets/svg/icons/logo-t2.svg

<svg width="139" height="53" viewBox="0 0 139 53" xmlns="http://www.w3.org/2000/svg"><title>Tele2</title><desc>Created with Sketch.</desc><path d="M0 18.34v7.519l20.405-2.231v-8.138l-20.405 2.85m6.512 7.976v25.764h7.471v-26.523l-7.471.759m16.649-11.211v36.975h7.872v-38.075l-7.872 1.1m9.338-1.305v8.506l11.367-1.243v-8.85l-11.367 1.587m0 14.836v8.661l7.462-.404v-8.895l-7.462.638m0 14.903v8.54h11.367v-8.881l-11.367.341m40.763-35.447v43.987h10.319v-45.429l-10.319 1.442m12.247-1.711v10.118l15.039-1.644v-10.576l-15.039 2.101m0 17.727v10.305l9.857-.535v-10.609l-9.857.839m0 17.838v10.133h15.039v-10.584l-15.039.451m-38.635-30.155v40.288h8.967v-41.541l-8.967 1.253m10.641 30.998v9.29h13.016v-9.68l-13.016.39m76.749-39.007c-3.261-3.063-8.043-4.319-13.274-3.572v11.222c2.118-.117 3.834.664 4.599 2.237 1.207 2.48-.038 6.201-2.977 9.649-4.536 5.32-16.597 16.21-16.597 16.21l17.315-.566c10.58-10.274 14.379-16.51 15.061-24.293.358-4.118-1.145-8.085-4.126-10.887m4.736 48.297v-11.742l-35.12 1.052m0 0l.004 10.691h35.116m-20.029-51.617c-10.203 2.16-15.213 9.621-14.634 21.795l10.878-.96c-.496-6.878 1.621-8.509 3.761-9.406l-.005-11.429" fill="#000" fill-rule="nonzero"/></svg>

<?xml version="1.0" encoding="utf-8"?>
<!-- Generator: Adobe Illustrator 21.1.0, SVG Export Plug-In . SVG Version: 6.00 Build 0)  -->
<svg version="1.1" id="Lager_1" xmlns="http://www.w3.org/2000/svg" xmlns:xlink="http://www.w3.org/1999/xlink" x="0px" y="0px"
	 width="139px" height="53px" viewBox="0 0 139 53" style="enable-background:new 0 0 139 53;" xml:space="preserve">
<title>tele2</title>
<desc>Created with Sketch.</desc>
<path id="Shape" d="M0,18.3v7.5l20.4-2.2v-8.1L0,18.3 M6.5,26.3v25.8H14V25.6L6.5,26.3 M23.2,15.1v37H31V14L23.2,15.1 M32.5,13.8
	v8.5l11.4-1.2v-8.9L32.5,13.8 M32.5,28.6v8.7l7.5-0.4V28L32.5,28.6 M32.5,43.5v8.5h11.4v-8.9L32.5,43.5 M73.3,8.1v44h10.3V6.7
	L73.3,8.1 M85.5,6.4v10.1l15-1.6V4.3L85.5,6.4 M85.5,24.1v10.3l9.9-0.5V23.3L85.5,24.1 M85.5,41.9v10.1h15V41.5L85.5,41.9
	 M46.9,11.8v40.3h9V10.5L46.9,11.8 M57.5,42.8v9.3h13v-9.7L57.5,42.8 M134.3,3.8c-3.3-3.1-8-4.3-13.3-3.6v11.2
	c2.1-0.1,3.8,0.7,4.6,2.2c1.2,2.5,0,6.2-3,9.6c-4.5,5.3-16.6,16.2-16.6,16.2l17.3-0.6c10.6-10.3,14.4-16.5,15.1-24.3
	C138.7,10.6,137.2,6.6,134.3,3.8 M139,52.1V40.3l-35.1,1.1 M103.9,41.4l0,10.7H139 M119,0.5c-10.2,2.2-15.2,9.6-14.6,21.8l10.9-1
	c-0.5-6.9,1.6-8.5,3.8-9.4L119,0.5"/>
</svg>
